MetaGraffiti.Base.Tests/Data/Img/example.xmp
<x:xmpmeta xmlns:x="adobe:ns:meta/" x:xmptk="Adobe XMP Core 5.6-c128 79.159124, 2016/03/18-14:01:55        ">
 <rdf:RDF xmlns:rdf="http://www.w3.org/1999/02/22-rdf-syntax-ns#">
  <rdf:Description rdf:about=""
    xmlns:aux="http://ns.adobe.com/exif/1.0/aux/"
    xmlns:photoshop="http://ns.adobe.com/photoshop/1.0/"
    xmlns:dc="http://purl.org/dc/elements/1.1/"
    xmlns:tiff="http://ns.adobe.com/tiff/1.0/"
    xmlns:exif="http://ns.adobe.com/exif/1.0/"
    xmlns:xmp="http://ns.adobe.com/xap/1.0/"
    xmlns:xmpMM="http://ns.adobe.com/xap/1.0/mm/"
    xmlns:stEvt="http://ns.adobe.com/xap/1.0/sType/ResourceEvent#"
    xmlns:xmpRights="http://ns.adobe.com/xap/1.0/rights/"
    xmlns:crs="http://ns.adobe.com/camera-raw-settings/1.0/"
   aux:Lens="Laowa 7.5mm F2"
   aux:SerialNumber="BHEA78548"
   aux:LensSerialNumber="001579"
   aux:FlashCompensation="0/256"
   photoshop:LegacyIPTCDigest="E02276FA32468C314194DC5C6EB96C0B"
   photoshop:DateCreated="2019-01-05T11:13:32"
   photoshop:SidecarForExtension="ORF"
   photoshop:EmbeddedXMPDigest="B341AEBE402F663F202F1BD7F4A20FF1"
   dc:format="image/x-olympus-raw"
   tiff:Make="OLYMPUS IMAGING CORP."
   tiff:Model="E-M5MarkII"
   tiff:Orientation="6"
   tiff:ImageWidth="4608"
   tiff:ImageLength="3456"
   exif:ExifVersion="0230"
   exif:ExposureTime="1/125"
   exif:ShutterSpeedValue="6965784/1000000"
   exif:ExposureProgram="3"
   exif:SensitivityType="1"
   exif:ExposureBiasValue="0/10"
   exif:MaxApertureValue="2/1"
   exif:MeteringMode="5"
   exif:LightSource="0"
   exif:FocalLength="15/2"
   exif:FileSource="3"
   exif:FocalLengthIn35mmFilm="15"
   exif:CustomRendered="0"
   exif:ExposureMode="0"
   exif:WhiteBalance="0"
   exif:SceneCaptureType="0"
   exif:GainControl="2"
   exif:Contrast="0"
   exif:Saturation="0"
   exif:Sharpness="0"
   exif:DigitalZoomRatio="100/100"
   exif:FocalPlaneXResolution="87196351/32768"
   exif:FocalPlaneYResolution="87196351/32768"
   exif:FocalPlaneResolutionUnit="3"
   exif:DateTimeOriginal="2019-01-05T11:13:32"
   exif:PixelXDimension="4608"
   exif:PixelYDimension="3456"
   xmp:CreatorTool="Version 3.0"
   xmp:ModifyDate="2019-01-05T11:13:32"
   xmp:CreateDate="2019-01-05T11:13:32"
   xmp:MetadataDate="2019-01-07T20:58:33+13:00"
   xmpMM:DocumentID="A64F69700DC8D7314F19CBBC8124D90D"
   xmpMM:OriginalDocumentID="A64F69700DC8D7314F19CBBC8124D90D"
   xmpMM:InstanceID="xmp.iid:a1ef39e0-0213-e74f-a6be-e057bfe76a7b"
   xmpRights:Marked="True"
   crs:Version="10.1"
   crs:ProcessVersion="6.7"
   crs:WhiteBalance="As Shot"
   crs:AutoWhiteVersion="134348800"
   crs:Saturation="+23"
   crs:Sharpness="40"
   crs:LuminanceSmoothing="25"
   crs:ColorNoiseReduction="25"
   crs:VignetteAmount="+50"
   crs:VignetteMidpoint="50"
   crs:ShadowTint="0"
   crs:RedHue="0"
   crs:RedSaturation="0"
   crs:GreenHue="+20"
   crs:GreenSaturation="-40"
   crs:BlueHue="-1"
   crs:BlueSaturation="+1"
   crs:Vibrance="+14"
   crs:HueAdjustmentRed="+8"
   crs:HueAdjustmentOrange="+14"
   crs:HueAdjustmentYellow="-4"
   crs:HueAdjustmentGreen="-18"
   crs:HueAdjustmentAqua="-11"
   crs:HueAdjustmentBlue="+1"
   crs:HueAdjustmentPurple="-7"
   crs:HueAdjustmentMagenta="-10"
   crs:SaturationAdjustmentRed="-13"
   crs:SaturationAdjustmentOrange="+14"
   crs:SaturationAdjustmentYellow="+16"
   crs:SaturationAdjustmentGreen="+11"
   crs:SaturationAdjustmentAqua="+11"
   crs:SaturationAdjustmentBlue="+12"
   crs:SaturationAdjustmentPurple="+18"
   crs:SaturationAdjustmentMagenta="-18"
   crs:LuminanceAdjustmentRed="-18"
   crs:LuminanceAdjustmentOrange="0"
   crs:LuminanceAdjustmentYellow="0"
   crs:LuminanceAdjustmentGreen="+4"
   crs:LuminanceAdjustmentAqua="+7"
   crs:LuminanceAdjustmentBlue="+22"
   crs:LuminanceAdjustmentPurple="+4"
   crs:LuminanceAdjustmentMagenta="+4"
   crs:SplitToningShadowHue="0"
   crs:SplitToningShadowSaturation="0"
   crs:SplitToningHighlightHue="0"
   crs:SplitToningHighlightSaturation="0"
   crs:SplitToningBalance="0"
   crs:ParametricShadows="-15"
   crs:ParametricDarks="+54"
   crs:ParametricLights="+52"
   crs:ParametricHighlights="-40"
   crs:ParametricShadowSplit="11"
   crs:ParametricMidtoneSplit="35"
   crs:ParametricHighlightSplit="90"
   crs:SharpenRadius="+0.5"
   crs:SharpenDetail="10"
   crs:SharpenEdgeMasking="0"
   crs:PostCropVignetteAmount="0"
   crs:GrainAmount="0"
   crs:LuminanceNoiseReductionDetail="50"
   crs:ColorNoiseReductionDetail="50"
   crs:LuminanceNoiseReductionContrast="0"
   crs:ColorNoiseReductionSmoothness="50"
   crs:LensProfileEnable="0"
   crs:LensManualDistortionAmount="0"
   crs:PerspectiveVertical="0"
   crs:PerspectiveHorizontal="0"
   crs:PerspectiveRotate="0.0"
   crs:PerspectiveScale="100"
   crs:PerspectiveAspect="0"
   crs:PerspectiveUpright="0"
   crs:PerspectiveX="0.00"
   crs:PerspectiveY="0.00"
   crs:AutoLateralCA="1"
   crs:Exposure2012="-0.95"
   crs:Contrast2012="-20"
   crs:Highlights2012="-45"
   crs:Shadows2012="+25"
   crs:Whites2012="+5"
   crs:Blacks2012="+30"
   crs:Clarity2012="+15"
   crs:DefringePurpleAmount="5"
   crs:DefringePurpleHueLo="30"
   crs:DefringePurpleHueHi="70"
   crs:DefringeGreenAmount="5"
   crs:DefringeGreenHueLo="40"
   crs:DefringeGreenHueHi="60"
   crs:Dehaze="0"
   crs:ToneMapStrength="0"
   crs:ConvertToGrayscale="False"
   crs:ToneCurveName="Medium Contrast"
   crs:ToneCurveName2012="Linear"
   crs:CameraProfile="Adobe Standard"
   crs:CameraProfileDigest="7895BA4B0478C44EAC1051E47BE10AFB"
   crs:LensProfileSetup="LensDefaults"
   crs:UprightVersion="151388160"
   crs:UprightCenterMode="0"
   crs:UprightCenterNormX="0.5"
   crs:UprightCenterNormY="0.5"
   crs:UprightFocalMode="0"
   crs:UprightFocalLength35mm="35"
   crs:UprightPreview="False"
   crs:UprightTransformCount="6"
   crs:UprightFourSegmentsCount="0"
   crs:HasSettings="True"
   crs:AlreadyApplied="False"
   crs:RawFileName="P1050023.ORF">
   <dc:description>
    <rdf:Alt>
     <rdf:li xml:lang="x-default"/>
    </rdf:Alt>
   </dc:description>
   <exif:ISOSpeedRatings>
    <rdf:Seq>
     <rdf:li>400</rdf:li>
    </rdf:Seq>
   </exif:ISOSpeedRatings>
   <exif:Flash
    exif:Fired="False"
    exif:Return="0"
    exif:Mode="3"
    exif:Function="False"
    exif:RedEyeMode="False"/>
   <xmpMM:History>
    <rdf:Seq>
     <rdf:li
      stEvt:action="saved"
      stEvt:instanceID="xmp.iid:a1ef39e0-0213-e74f-a6be-e057bfe76a7b"
      stEvt:when="2019-01-07T20:58:33+13:00"
      stEvt:softwareAgent="Adobe Photoshop Lightroom 6.14 (Windows)"
      stEvt:changed="/metadata"/>
    </rdf:Seq>
   </xmpMM:History>
   <crs:ToneCurve>
    <rdf:Seq>
     <rdf:li>0, 0</rdf:li>
     <rdf:li>32, 22</rdf:li>
     <rdf:li>64, 56</rdf:li>
     <rdf:li>128, 128</rdf:li>
     <rdf:li>192, 196</rdf:li>
     <rdf:li>255, 255</rdf:li>
    </rdf:Seq>
   </crs:ToneCurve>
   <crs:ToneCurveRed>
    <rdf:Seq>
     <rdf:li>0, 0</rdf:li>
     <rdf:li>255, 255</rdf:li>
    </rdf:Seq>
   </crs:ToneCurveRed>
   <crs:ToneCurveGreen>
    <rdf:Seq>
     <rdf:li>0, 0</rdf:li>
     <rdf:li>255, 255</rdf:li>
    </rdf:Seq>
   </crs:ToneCurveGreen>
   <crs:ToneCurveBlue>
    <rdf:Seq>
     <rdf:li>0, 0</rdf:li>
     <rdf:li>255, 255</rdf:li>
    </rdf:Seq>
   </crs:ToneCurveBlue>
   <crs:ToneCurvePV2012>
    <rdf:Seq>
     <rdf:li>0, 0</rdf:li>
     <rdf:li>255, 255</rdf:li>
    </rdf:Seq>
   </crs:ToneCurvePV2012>
   <crs:ToneCurvePV2012Red>
    <rdf:Seq>
     <rdf:li>0, 0</rdf:li>
     <rdf:li>255, 255</rdf:li>
    </rdf:Seq>
   </crs:ToneCurvePV2012Red>
   <crs:ToneCurvePV2012Green>
    <rdf:Seq>
     <rdf:li>0, 0</rdf:li>
     <rdf:li>255, 255</rdf:li>
    </rdf:Seq>
   </crs:ToneCurvePV2012Green>
   <crs:ToneCurvePV2012Blue>
    <rdf:Seq>
     <rdf:li>0, 0</rdf:li>
     <rdf:li>255, 255</rdf:li>
    </rdf:Seq>
   </crs:ToneCurvePV2012Blue>
  </rdf:Description>
 </rdf:RDF>
</x:xmpmeta>
